X:211
U: ~ = !turn!
%%topmargin 3cm
T:Waltham Flute Tune
B:Traditional Irish Fiddle Tunes. Randy Miller and Jack Perron.
Z:Transcribed by Ralph Palmer
S:Eugene Nolan, Dierdre Collis, Peg McGrath
R:Reel
L:1/8
M:C|
K:D
Beed BAFA | d2 ed BAFA | Beed BAFA | ((3Bcd) eg fded |
Beed BAFA | d2 ed BAFA | Beed BAFA | ((3Bcd) eg feed ::
e2 ((3gfe) Be ((3gfe) | defg agfg | e2 ((3gfe) Be ((3gfe) | defa geed |
e2 ((3gfe) Be ((3gfe) | defg a2 ga | ((3bag) ((3agf) gfed | ((3Bcd) eg feed :|]
